X:11040
T: Walzer  CF (wz09039)
S: Hanny Christen. Bd.X Unterwalden II. Glarus.
S: Das Repertoire der B\"abi-Musig, Alpnach. S.62-108. S.63 (wz09039) orig. C,F
S: \"Uberliefert durch Josef B\"abi, Alpnach, 1880
%%MIDI program 21
R:waltz
M:3/4
L:1/4
O:Switzerland
K:C %%MIDI gchordon
"G"GAB | "C/G"cde | "G7"dzg/g/ | gzz |: "C"ef^f | {/g}"G7"b>bb | {/f}a>aa | {/e}"C"g>gg | gfe | "G7"d/g/ fd | 
d/g/fd | "C"e3 | ef^f | {/g}"G7"b>bb | {/f}a>aa | {/e}"C"g>gg | g^fe | "G"d/b/bg | "D7"^f/d'/d'f | "G"gzz :: 
"C"g>ab | c'd'c' | "G7"bf>c' | b3 | aB>b | a3 | "C"gc>g | e3 | ga>b | c'd'c' | "G7"bf>c' | 
b3 | aB>d | "C"eGc | "G7"B/d/gg | "C"czz :: [K:F] "F"f3 | g2f | "C7"e2d | c2d | ezc | c3 | 
"F"fzA | A3 | a3 | b2a | "C7"g2f | e3 | c'ze | "F"c'zf | "C7"d'/c'/ be | "F"fzz |] 
% wz09039
% Aug 16, 2016

